X: 21503
M: C|
L: 1/8
K: D
V: 1
|:\
EDEC EGG2 | cGAG cBAc | EDEC EGGA | Ac[BG]E EDD2 :|\
egg2 gagd eaa2 abag | egde cded | eage edd2 :|\
fedc deag | fedc AcFE | EGce fedc | AcGE EDD2 :|


